packages/foundations/assets/icons/functional/images/file/paper_clip_28.svg

<svg width="28" height="28" viewBox="0 0 28 28" fill="none" xmlns="http://www.w3.org/2000/svg">
<g clip-path="url(#clip0_185_995)">
<path fill-rule="evenodd" clip-rule="evenodd" d="M22.6024 4.16466C24.2606 5.83479 24.2995 8.50444 22.7227 10.2215L12.7132 20.2367C11.6856 21.2497 10.0313 21.2379 9.01827 20.2103C8.03705 19.2149 8.00752 17.636 8.92563 16.6055L17.3841 8.14074C17.7258 7.79904 18.2798 7.79904 18.6215 8.14074C18.9388 8.45804 18.9615 8.95841 18.6895 9.30186L10.269 17.7307C9.92404 18.0757 9.92204 18.6343 10.2645 18.9817C10.5751 19.2968 11.0683 19.3227 11.4089 19.0569L21.3539 9.12119C22.3813 8.09373 22.3843 6.42881 21.3605 5.39769C20.3802 4.41033 18.807 4.36957 17.7778 5.27948L7.15868 15.8915C5.44812 17.6021 5.44482 20.3744 7.1513 22.089C8.80618 23.7518 11.4685 23.8018 13.1839 22.2344L22.334 13.0906C22.6757 12.7489 23.2297 12.7489 23.5714 13.0906C23.8887 13.4079 23.9114 13.9083 23.6394 14.2517L14.5553 23.3441C12.1625 25.7255 8.29232 25.7163 5.9109 23.3235C3.57353 20.975 3.52926 17.2079 5.7748 14.8055L16.4327 4.14262C18.1425 2.44503 20.9048 2.4549 22.6024 4.16466Z" fill="#1A1C1F"/>
</g>
<defs>
<clipPath id="clip0_185_995">
<rect width="28" height="28" fill="white"/>
</clipPath>
</defs>
</svg>

<svg xmlns="http://www.w3.org/2000/svg" width="28" height="28" fill="none"><g clip-path="url(#a)"><path fill="#1A1C1F" fill-rule="evenodd" d="M22.602 4.165a4.39 4.39 0 0 1 .12 6.057L12.714 20.237a2.613 2.613 0 0 1-3.695-.027 2.64 2.64 0 0 1-.092-3.605l8.458-8.464A.875.875 0 0 1 18.69 9.3l-8.42 8.43a.89.89 0 0 0-.005 1.25.863.863 0 0 0 1.145.076l9.945-9.936a2.64 2.64 0 0 0 .006-3.723 2.613 2.613 0 0 0-3.582-.119L7.158 15.892a4.39 4.39 0 0 0-.007 6.197 4.363 4.363 0 0 0 6.033.145l9.15-9.143a.875.875 0 0 1 1.305 1.16l-9.084 9.093a6.113 6.113 0 0 1-8.644-.02 6.14 6.14 0 0 1-.136-8.519L16.433 4.143a4.363 4.363 0 0 1 6.17.022" clip-rule="evenodd"/></g><defs><clipPath id="a"><path fill="#fff" d="M0 0h28v28H0z"/></clipPath></defs></svg>
